icons/op-notes-24.svg

<svg xmlns="http://www.w3.org/2000/svg" width="24" height="24" viewBox="0 0 24 24"><path d="M17 5V4h-1v1h-2V4h-1v1h-2V4h-1v1H8V4H7v1H4v15h16V5h-3Zm1 13H6V7h1v1h1V7h2v1h1V7h2v1h1V7h2v1h1V7h1v11Z"/></svg>

<svg width="24" height="24" viewBox="0 0 24 24" fill="none" xmlns="http://www.w3.org/2000/svg">
<path d="M17 5V4H16V5H14V4H13V5H11V4H10V5H8V4H7V5H4V20H20V5H17ZM18 18H6V7H7V8H8V7H10V8H11V7H13V8H14V7H16V8H17V7H18V18Z" fill="black"/>
</svg>
